Adwaita++/status/16/network-wireless-disconnected.svg

<svg height="16" width="16" xmlns="http://www.w3.org/2000/svg">
  <g fill="#474747">
    <path d="m11 11v1c0 .28.1.54.28.72l.78.78-.78.78c-.18.19-.28.45-.28.72v1h1c.28 0 .54-.1.72-.28l.78-.78.78.78c.18.18.45.28.72.28h1v-1c0-.27-.1-.53-.28-.72l-.78-.78.78-.78c.18-.18.28-.44.28-.72v-1h-1c-.27 0-.54.1-.72.28l-.78.79-.78-.79c-.18-.18-.44-.28-.72-.28z"/>
    <path d="m8 1c-3.0506 0-5.9194 1.0732-8 3l8 11 2.019531-2.777344c-.00764-.074241-.019531-.148103-.019531-.222656v-1-1h1.636719l4.363281-6c-2.081-1.9269-4.949-3-8-3z" opacity=".3"/>
  </g>
</svg>

<svg xmlns="http://www.w3.org/2000/svg" width="16" height="16" version="1.1">
 <path style="fill:#474747" d="M 11,11 V 12 C 11,12.28 11.1,12.54 11.28,12.72 L 12.06,13.5 11.28,14.28 C 11.1,14.47 11,14.73 11,15 V 16 H 12 C 12.28,16 12.54,15.9 12.72,15.72 L 13.5,14.94 14.28,15.72 C 14.46,15.9 14.73,16 15,16 H 16 V 15 C 16,14.73 15.9,14.47 15.72,14.28 L 14.94,13.5 15.72,12.72 C 15.9,12.54 16,12.28 16,12 V 11 H 15 C 14.73,11 14.46,11.1 14.28,11.28 L 13.5,12.07 12.72,11.28 C 12.54,11.1 12.28,11 12,11 Z"/>
 <path style="opacity:0.3;fill:#474747" d="M 8 1 C 4.9494 1 2.0806 2.0732 0 4 L 8 15 L 10.019531 12.222656 C 10.011891 12.148415 10 12.074553 10 12 L 10 11 L 10 10 L 11.636719 10 L 16 4 C 13.919 2.0731 11.051 1 8 1 z"/>
</svg>
